assets/images/arrow.svg

<svg fill="none" height="12" viewBox="0 0 20 12" width="20" xmlns="http://www.w3.org/2000/svg"><path clip-rule="evenodd" d="m.468876.968997c.069668-.069844.152432-.125259.24355-.163069.091117-.037809.188799-.057271.28745-.057271.098654 0 .196334.019462.287454.057271.09111.03781.17388.093225.24355.163069l8.469 8.470503 8.46902-8.470503c.0697-.069731.1525-.125046.2436-.162785.0911-.037738.1888-.057162.2874-.057162s.1962.019424.2874.057162c.0911.037739.1738.093054.2436.162785.0697.069733.125.152513.1628.243623.0377.09111.0571.18876.0571.28738 0 .09861-.0194.19626-.0571.28737-.0378.09111-.0931.1739-.1628.24363l-9 9c-.0697.0698-.1525.1253-.2436.1631s-.1888.0572-.28742.0572c-.09866 0-.19634-.0194-.28745-.0572-.09112-.0378-.17389-.0933-.24355-.1631l-9.000004-9c-.069845-.06967-.125259-.15243-.163069-.24355s-.057272-.1888-.057272-.28745.019462-.19634.057272-.28745c.03781-.09112.093224-.17388.163069-.243553z" fill="#000" fill-rule="evenodd"/></svg>

<svg width="20" height="12" viewBox="0 0 20 12" fill="none" xmlns="http://www.w3.org/2000/svg">
<path fill-rule="evenodd" clip-rule="evenodd" d="M0.468876 0.968997C0.538544 0.899153 0.621308 0.843738 0.712426 0.805928C0.803543 0.768119 0.901225 0.748657 0.999876 0.748657C1.09853 0.748657 1.19621 0.768119 1.28733 0.805928C1.37844 0.843738 1.46121 0.899153 1.53088 0.968997L9.99988 9.4395L18.4689 0.968997C18.5386 0.899266 18.6214 0.843951 18.7125 0.806212C18.8036 0.768474 18.9013 0.74905 18.9999 0.74905C19.0985 0.74905 19.1961 0.768474 19.2873 0.806212C19.3784 0.843951 19.4611 0.899266 19.5309 0.968997C19.6006 1.03873 19.6559 1.12151 19.6937 1.21262C19.7314 1.30373 19.7508 1.40138 19.7508 1.5C19.7508 1.59861 19.7314 1.69626 19.6937 1.78737C19.6559 1.87848 19.6006 1.96127 19.5309 2.031L10.5309 11.031C10.4612 11.1008 10.3784 11.1563 10.2873 11.1941C10.1962 11.2319 10.0985 11.2513 9.99988 11.2513C9.90122 11.2513 9.80354 11.2319 9.71243 11.1941C9.62131 11.1563 9.53854 11.1008 9.46888 11.031L0.468876 2.031C0.399031 1.96133 0.343617 1.87857 0.305807 1.78745C0.267997 1.69633 0.248535 1.59865 0.248535 1.5C0.248535 1.40135 0.267997 1.30366 0.305807 1.21255C0.343617 1.12143 0.399031 1.03867 0.468876 0.968997Z" fill="black"/>
</svg>
